Numix-uTouch/48x48/apps/tomahawk.svg

<?xml version="1.0" encoding="UTF-8" standalone="no"?>
<svg
   xmlns:dc="http://purl.org/dc/elements/1.1/"
   xmlns:cc="http://creativecommons.org/ns#"
   xmlns:rdf="http://www.w3.org/1999/02/22-rdf-syntax-ns#"
   xmlns:svg="http://www.w3.org/2000/svg"
   xmlns="http://www.w3.org/2000/svg"
   xmlns:sodipodi="http://sodipodi.sourceforge.net/DTD/sodipodi-0.dtd"
   xmlns:inkscape="http://www.inkscape.org/namespaces/inkscape"
   width="48"
   height="48"
   viewBox="0 0 48 48"
   id="svg2"
   version="1.1"
   inkscape:version="0.48.4 r9939"
   sodipodi:docname="tomahawk.svg">
  <metadata
     id="metadata25">
    <rdf:RDF>
      <cc:Work
         rdf:about="">
        <dc:format>image/svg+xml</dc:format>
        <dc:type
           rdf:resource="http://purl.org/dc/dcmitype/StillImage" />
      </cc:Work>
    </rdf:RDF>
  </metadata>
  <sodipodi:namedview
     pagecolor="#ffffff"
     bordercolor="#666666"
     borderopacity="1"
     objecttolerance="10"
     gridtolerance="10"
     guidetolerance="10"
     inkscape:pageopacity="0"
     inkscape:pageshadow="2"
     inkscape:window-width="1280"
     inkscape:window-height="998"
     id="namedview23"
     showgrid="false"
     inkscape:zoom="4.9166667"
     inkscape:cx="24.40678"
     inkscape:cy="23.59322"
     inkscape:window-x="0"
     inkscape:window-y="0"
     inkscape:window-maximized="1"
     inkscape:current-layer="svg2" />
  <defs
     id="defs4">
    <radialGradient
       cx="148.004"
       cy="160"
       gradientTransform="matrix(.1831 0 0 .1831 -3.10029 -5.29688)"
       id="radial0"
       r="128"
       gradientUnits="userSpaceOnUse">
      <stop
         offset="0"
         style="stop-color:#ffc2c2"
         id="stop7" />
      <stop
         offset="1"
         style="stop-color:#8e2121"
         id="stop9" />
    </radialGradient>
  </defs>
  <path
     style="fill:url(#radial0)"
     d="M 47.4375 11.546875 L 47.4375 36.453125 C 47.4375 46.703125 47.4375 47.4375 36.453125 47.4375 L 11.550781 47.4375 C 0.5625 47.4375 0.5625 46.703125 0.5625 36.453125 L 0.5625 11.546875 C 0.5625 1.296875 0.5625 0.5625 11.550781 0.5625 L 36.453125 0.5625 C 47.4375 0.5625 47.4375 1.296875 47.4375 11.546875 Z "
     id="path11" />
  <path
     style="fill:#fff;fill-opacity:.051"
     d="M 38.265625 47.4375 C 40.808594 47.425781 42.644531 47.355469 43.976562 46.996094 L 39.746094 39.746094 L 35.261719 47.4375 L 36.453125 47.4375 C 37.09375 47.4375 37.695312 47.4375 38.265625 47.4375 Z M 39.746094 39.746094 L 34.621094 30.957031 L 29.492188 39.746094 Z M 39.746094 39.746094 L 47.398438 39.746094 C 47.429688 38.773438 47.4375 37.683594 47.4375 36.449219 L 47.4375 35.351562 L 44.875 30.957031 Z M 44.875 30.957031 L 39.746094 22.167969 L 34.621094 30.957031 Z M 44.875 30.957031 L 47.4375 30.957031 L 47.4375 26.5625 Z M 34.621094 30.957031 L 29.492188 22.167969 L 24.367188 30.957031 Z M 24.367188 30.957031 L 19.238281 39.746094 L 29.492188 39.746094 Z M 24.367188 30.957031 L 19.238281 22.167969 L 14.113281 30.957031 Z M 14.113281 30.957031 L 8.984375 39.746094 L 19.238281 39.746094 Z M 14.113281 30.957031 L 8.984375 22.167969 L 3.859375 30.957031 Z M 3.859375 30.957031 L 0.5625 36.605469 C 0.5625 37.773438 0.574219 38.816406 0.601562 39.746094 L 8.984375 39.746094 Z M 3.859375 30.957031 L 0.5625 25.308594 L 0.5625 30.957031 Z M 8.984375 39.746094 L 4.671875 47.140625 C 6.269531 47.433594 8.480469 47.4375 11.546875 47.4375 L 13.472656 47.4375 Z M 8.984375 22.167969 L 3.859375 13.378906 L 0.5625 19.027344 L 0.5625 22.167969 Z M 8.984375 22.167969 L 19.238281 22.167969 L 14.113281 13.378906 Z M 14.113281 13.378906 L 8.984375 4.589844 L 3.859375 13.378906 Z M 14.113281 13.378906 L 24.367188 13.378906 L 19.238281 4.589844 Z M 19.238281 4.589844 L 16.886719 0.5625 L 11.546875 0.5625 C 11.472656 0.5625 11.410156 0.5625 11.335938 0.5625 L 8.984375 4.589844 Z M 19.238281 4.589844 L 29.492188 4.589844 L 27.140625 0.5625 L 21.589844 0.5625 Z M 29.492188 4.589844 L 39.746094 4.589844 L 37.394531 0.5625 C 37.082031 0.5625 36.785156 0.5625 36.449219 0.5625 L 31.84375 0.5625 Z M 29.492188 4.589844 L 24.367188 13.378906 L 34.621094 13.378906 Z M 34.621094 13.378906 L 44.875 13.378906 L 39.746094 4.589844 Z M 34.621094 13.378906 L 29.492188 22.167969 L 39.746094 22.167969 Z M 39.746094 22.167969 L 47.4375 22.167969 L 47.4375 17.773438 L 44.875 13.378906 Z M 44.875 13.378906 L 47.4375 13.378906 L 47.4375 11.546875 C 47.4375 10.632812 47.429688 9.796875 47.414062 9.023438 Z M 29.492188 22.167969 L 24.367188 13.378906 L 19.238281 22.167969 Z M 39.746094 4.589844 L 47.054688 4.589844 C 46.5 1.832031 45.167969 0.960938 42.023438 0.6875 Z M 8.984375 4.589844 L 6.679688 0.636719 C 3.019531 0.84375 1.539062 1.632812 0.945312 4.589844 Z M 3.859375 13.378906 L 0.621094 7.824219 C 0.578125 8.898438 0.5625 10.132812 0.5625 11.546875 L 0.5625 13.378906 Z M 19.238281 39.746094 L 14.753906 47.4375 L 23.726562 47.4375 Z M 29.492188 39.746094 L 25.007812 47.4375 L 33.980469 47.4375 Z M 2.59375 46.367188 L 0.992188 43.621094 C 1.285156 44.9375 1.777344 45.800781 2.59375 46.367188 Z "
     id="path13" />
  <path
     style="fill:none;stroke:#ffffff;stroke-width:2.81257939"
     d="m 37.59371,23.999999 c 0,7.506229 -6.087483,13.593711 -13.593711,13.593711 -7.506227,0 -13.593709,-6.087482 -13.593709,-13.593711 0,-7.506227 6.087482,-13.59371 13.593709,-13.59371 7.506228,0 13.593711,6.087483 13.593711,13.59371 z"
     id="path15"
     inkscape:connector-curvature="0" />
  <g
     style="fill:#ffffff"
     id="g17"
     transform="matrix(0.79999692,0,0,0.79999696,4.8000562,4.8000561)">
    <path
       d="m 19.3125,13.453125 0,21.09375 L 34.546875,24 z"
       id="path19"
       inkscape:connector-curvature="0" />
    <path
       d="m 31.03125,39.234375 0,-19.921875 3.515625,0 0,18.75 z"
       id="path21"
       inkscape:connector-curvature="0" />
  </g>
</svg>

<svg xmlns="http://www.w3.org/2000/svg" viewBox="0 0 48 48"><defs><radialGradient id="0" cx="24" cy="24" r="23.437" gradientUnits="userSpaceOnUse"><stop stop-color="#e2e2e2"/><stop offset="1" stop-color="#c2c2c2"/></radialGradient></defs><path d="m 47.44 11.547 l 0 24.906 c 0 10.25 0 10.984 -10.984 10.984 l -24.902 0 c -10.988 0 -10.988 -0.734 -10.988 -10.984 l 0 -24.906 c 0 -10.25 0 -10.984 10.988 -10.984 l 24.902 0 c 10.984 0 10.984 0.734 10.984 10.984" fill="url(#0)"/><path d="m 16 10 l 0 25.02 l 18 -12.504 m -18 -12.512" fill="#fff"/><path d="m 30 40 l 0 -23 l 4 0 l 0 23 m -4 0" fill="#fff"/><path d="m 38.27 47.44 c 2.543 -0.012 4.379 -0.082 5.711 -0.441 l -4.23 -7.25 -4.484 7.691 1.191 0 c 0.641 0 1.242 0 1.813 0 z m 1.48 -7.691 -5.125 -8.789 -5.129 8.789 z m 0 0 7.652 0 c 0.031 -0.973 0.039 -2.063 0.039 -3.297 l 0 -1.098 -2.563 -4.395 z m 5.129 -8.789 -5.129 -8.789 -5.125 8.789 z m 0 0 2.563 0 0 -4.395 z m -10.254 0 -5.129 -8.789 -5.125 8.789 z m -10.254 0 -5.129 8.789 10.254 0 z m 0 0 -5.129 -8.789 -5.125 8.789 z m -10.254 0 -5.129 8.789 10.254 0 z m 0 0 -5.129 -8.789 -5.125 8.789 z m -10.254 0 -3.297 5.648 c 0 1.168 0.012 2.211 0.039 3.141 l 8.383 0 z m 0 0 -3.297 -5.648 0 5.648 z m 5.125 8.789 -4.313 7.395 c 1.598 0.293 3.809 0.297 6.879 0.297 l 1.922 0 z m 0 -17.578 -5.125 -8.789 -3.297 5.648 0 3.141 z m 0 0 10.254 0 -5.125 -8.789 z m 5.129 -8.789 -5.129 -8.789 -5.125 8.789 z m 0 0 10.254 0 -5.129 -8.789 z m 5.125 -8.789 -2.352 -4.03 -5.336 0 c -0.078 0 -0.141 0 -0.215 0 l -2.352 4.03 z m 0 0 10.254 0 -2.352 -4.03 -5.551 0 z m 10.254 0 10.254 0 l -2.352 -4.03 c -0.313 0 -0.609 0 -0.941 0 l -4.609 0 z m 0 0 -5.125 8.789 10.254 0 z m 5.129 8.789 10.254 0 -5.129 -8.789 z m 0 0 -5.129 8.789 10.254 0 z m 5.125 8.789 7.691 0 0 -4.395 -2.563 -4.395 z m 5.129 -8.789 2.563 0 0 -1.832 c 0 -0.914 -0.008 -1.75 -0.023 -2.523 z m -15.383 8.789 -5.125 -8.789 -5.129 8.789 z m 10.254 -17.578 7.309 0 c -0.555 -2.758 -1.887 -3.629 -5.03 -3.902 z m -30.762 0 l -2.305 -3.953 c -3.66 0.207 -5.141 0.996 -5.734 3.953 z m -5.125 8.789 l -3.238 -5.555 c -0.043 1.074 -0.059 2.309 -0.059 3.723 l 0 1.832 z m 15.379 26.367 -4.484 7.691 8.973 0 z m 10.254 0 -4.484 7.691 8.973 0 z m -26.898 6.621 -1.602 -2.746 c 0.293 1.316 0.785 2.18 1.602 2.746 z" fill="#fff" fill-opacity="0.132"/></svg>
